X:1101
T:Eileen O'Callaghan's
T:Grogan's Favourite
T:Geoghan's
T:Geoghegan's
T:Geoghegan's Fancy
T:Geehan's
R:reel
Z:id:hn-reel-1101
M:C|
L:1/8
K:G
G2BG DGBA | G2Bd cAFA | G2BG DGBc | defd cAFA |
G2BG DGBA | G2Bd cAFA | GB~B2 dB~B2 | defd cAFA :|
|: dggf g2fg | adfd adfe | dggf g2fe | defd cAFA |
dggf g2fg | ~a3b agfe | dg~g2 bg~g2 | defd cAFA :| 

